X: 403
%
U:~=!turn!
T: Miss Grant of Cullen House
C:Marshall
O:Scotland
B:Keith Norman MacDonald : "The Skye collection of the best reels & strathspeys extant" : 1887
Z:Ralph Palmer
R:Reel
M:C
L:1/8
K:F
F | (cd)cB (Ac)fe | dcBA GABd | (cd)cB (Ac)ag | fdcA {/E}F2 F :|
B | AcFc AcFc | GABc dcdf | AcFc AcFc | BGcE {/E}~F2 (FB) |
AcFc AcFc | GABc dcde | faTge fdcA | BGcE {/E}~F2 F |]


